assets/illustrations/no_connection_2.svg

<svg fill="none" height="280" viewBox="0 0 280 280" width="280" xmlns="http://www.w3.org/2000/svg">
    <path
        d="m185.124 44.1076s-33.61 42.5729-87.3863 17.178c-53.7761-25.3949-107.5516 43.3204-61.2451 85.1464 46.3066 41.826.9922 64.809 32.452 90.442 35.7564 29.134 66.8854-29.944 95.2664-16.5 62.64 29.672 109.046 17.925 98.59-16.432-18.355-60.309-41.826-64.232-23.9-95.602 17.925-31.3698-21.637-96.594-53.777-64.2324z"
        fill="#dee9ff" />
    <path
        d="m181.728 121.939s34.206-2.222 36.871-35.9835c-3.109-2.2212-7.552-15.5482 0-16.8809s12.883 0 12.883 0 13.771 10.6615-3.554 18.6578c-.444 4.4425-.888 43.9796-36.427 61.3046s-9.773-27.098-9.773-27.098z"
        fill="#699cff" />
    <path
        d="m238.214 47.3906-13.714-2.4989c-.76-.1386-1.489.3657-1.628 1.1264l-4.941 27.1179c-.139.7607.365 1.4897 1.126 1.6283l13.714 2.4989c.76.1386 1.489-.3657 1.628-1.1263l4.941-27.118c.139-.7607-.365-1.4897-1.126-1.6283z"
        fill="#0e84e5" />
    <path
        d="m198.928 146.443c0 18.818-8.333 35.699-21.518 47.16-11.35 9.851-25.878 15.265-40.906 15.246-22.194 0-41.6691-11.568-52.7394-29.018-5.9724-9.441-9.3021-20.312-9.642-31.478-.3398-11.167 2.3227-22.22 7.7099-32.007s13.3017-17.9487 22.9175-23.6349c9.617-5.6862 20.583-8.688 31.754-8.6924 28.947 0 53.309 19.7063 60.345 46.4493 1.391 5.211 2.09 10.582 2.079 15.975z"
        fill="#a2bdff" />
    <path
        d="m177.41 193.603c-11.35 9.85-25.878 15.265-40.906 15.246-22.194 0-41.6691-11.568-52.7395-29.018 9.7377-7.978 15.2284-7.126 18.8885-5.757 3.999 1.511 6.22 8.281 17.77 1.617 11.55-6.663 20.879 9.329 25.321 11.995 17.77-1.28 27.028 2.505 31.666 5.917z"
        fill="#0e84e5" />
    <path
        d="m196.85 130.468c-26.388 6.255-24.522-8.76-27.117-17.858-2.665-9.329-4.442-6.22-20.879 6.664-16.437 12.883-18.214-7.997-18.516-11.55-.319-3.554-1.03-4.886-9.471-3.839-8.44 1.048-10.661-5.4904-17.769-1.048-2.95 1.848-6.9658 1.013-10.6441-.604 5.7818-5.7866 12.6491-10.3743 20.2091-13.5 7.559-3.1256 15.661-4.7276 23.841-4.7141 28.947-.0003 53.309 19.7061 60.346 46.4491z"
        fill="#0e84e5" />
    <g fill="#699cff">
        <path
            d="m83.4985 79.3276c-.2858.9649-.2789 1.9927.0195 2.9537.2985.961.8752 1.8118 1.6572 2.445.7821.6332 1.7343 1.0203 2.7363 1.1123 1.002.0921 2.0089-.1151 2.8931-.5953.8843-.4802 1.6064-1.2118 2.0748-2.1023.4685-.8905.6625-1.9.5573-2.9007s-.5048-1.9478-1.1483-2.7214c-.6434-.7736-1.5018-1.3391-2.4666-1.6249-1.2938-.383-2.6868-.2364-3.8726.4075-1.1859.6439-2.0674 1.7324-2.4507 3.0261z" />
        <path
            d="m80.8863 66.9784c-1.8147.9789-3.4171 2.3082-4.7144 3.9108s-2.2637 3.4467-2.8432 5.4255c-.1127.3754-.1501.7693-.1102 1.1592s.1565.7681.3429 1.1129.4391.6493.7435.8962c.3043.247.6545.4313 1.0303.5426s.7699.1473 1.1597.106c.3897-.0414.7675-.1593 1.1116-.347.344-.1876.6477-.4414.8935-.7467s.4289-.6561.5388-1.0323c.363-1.2264.964-2.3692 1.7687-3.3632s1.7973-1.8198 2.9212-2.4301c1.1239-.6104 2.357-.9933 3.6289-1.127s2.5577-.0155 3.7839.3479c.3755.1126.7694.15 1.1593.1101s.7681-.1565 1.1129-.3429c.3447-.1864.6493-.439.8962-.7434s.4313-.6546.5426-1.0304.1473-.7699.1059-1.1597c-.0413-.3897-.1592-.7675-.3469-1.1116-.1877-.344-.4414-.6477-.7467-.8935s-.6561-.4289-1.0323-.5388c-1.9753-.5914-4.0483-.7849-6.0989-.5694s-4.0381.8357-5.8473 1.8248z" />
        <path
            d="m76.2067 58.3613c-2.9485 1.5908-5.5523 3.7506-7.6605 6.3545-2.1081 2.6039-3.6789 5.6001-4.6213 8.8152-.2242.7572-.1385 1.5725.2384 2.2665s1.014 1.2099 1.7712 1.4341c.7572.2243 1.5725.1385 2.2665-.2384.694-.3768 1.2099-1.0139 1.4341-1.7712.7286-2.4611 1.9349-4.7546 3.5499-6.7496 1.6151-1.9949 3.6073-3.6522 5.8628-4.8771 2.2556-1.2249 4.7304-1.9935 7.2831-2.2619s5.1332-.0313 7.5942.6977c.3754.1127.7694.1501 1.1593.1102.3899-.04.7681-.1565 1.1129-.3429.3447-.1864.6493-.4391.8962-.7435s.4313-.6545.5426-1.0303c.1113-.3759.1473-.7699.1059-1.1597-.0413-.3897-.1592-.7675-.3469-1.1116s-.4414-.6477-.7467-.8935-.6561-.429-1.0324-.5389c-3.2094-.9604-6.5774-1.2745-9.909-.9243-3.3317.3502-6.5607 1.3579-9.5003 2.9647z" />
        <path
            d="m98.4081 46.8977c-4.4484-1.3177-9.1128-1.7462-13.7269-1.261-4.6141.4851-9.0873 1.8744-13.1644 4.0885s-7.6781 5.2096-10.5974 8.8156c-2.9193 3.6059-5.0996 7.7515-6.4166 12.2002-.1126.3754-.15.7694-.1101 1.1593s.1565.7681.3429 1.1128c.1864.3448.439.6494.7434.8963s.6546.4313 1.0304.5426c.3758.1112.7699.1473 1.1596.1059.3898-.0414.7676-.1593 1.1117-.3469.344-.1877.6477-.4415.8935-.7468s.4289-.6561.5388-1.0323c1.0948-3.6986 2.9075-7.1454 5.3346-10.1434 2.427-2.998 5.4209-5.4885 8.8106-7.3293s7.1088-2.9958 10.9449-3.3991c3.8362-.4032 7.7142-.0469 11.4125 1.0488.7562.2203 1.5687.1322 2.26-.2451s1.2054-1.013 1.4284-1.7681c.224-.7551.14-1.5681-.234-2.2611-.3745-.693-1.0078-1.2096-1.7619-1.4369z" />
    </g>
</svg>

<svg fill="none" height="280" viewBox="0 0 280 280" width="280" xmlns="http://www.w3.org/2000/svg">
    <path
        d="M185.124 44.1076C185.124 44.1076 151.514 86.6805 97.7377 61.2856C43.9616 35.8907 -9.8139 104.606 36.4926 146.432C82.7992 188.258 37.4848 211.241 68.9446 236.874C104.701 266.008 135.83 206.93 164.211 220.374C226.851 250.046 273.257 238.299 262.801 203.942C244.446 143.633 220.975 139.71 238.901 108.34C256.826 76.9702 217.264 11.746 185.124 44.1076Z"
        fill="#DEE9FF" />
    <path
        d="M181.728 121.939C181.728 121.939 215.934 119.717 218.599 85.9555C215.49 83.7343 211.047 70.4073 218.599 69.0746C226.151 67.7419 231.482 69.0746 231.482 69.0746C231.482 69.0746 245.253 79.7361 227.928 87.7324C227.484 92.1749 227.04 131.712 191.501 149.037C155.962 166.362 181.728 121.939 181.728 121.939Z"
        fill="#699CFF" />
    <path
        d="M238.214 47.3906L224.5 44.8917C223.74 44.7531 223.011 45.2574 222.872 46.0181L217.931 73.136C217.792 73.8967 218.296 74.6257 219.057 74.7643L232.771 77.2632C233.531 77.4018 234.26 76.8975 234.399 76.1369L239.34 49.0189C239.479 48.2582 238.975 47.5292 238.214 47.3906Z"
        fill="#0E84E5" />
    <path
        d="M198.928 146.443C198.928 165.261 190.595 182.142 177.41 193.603C166.06 203.454 151.532 208.868 136.504 208.849C114.31 208.849 94.8349 197.281 83.7646 179.831C77.7922 170.39 74.4625 159.519 74.1226 148.353C73.7828 137.186 76.4453 126.133 81.8325 116.346C87.2197 106.559 95.1342 98.3973 104.75 92.7111C114.367 87.0249 125.333 84.0231 136.504 84.0187C165.451 84.0187 189.813 103.725 196.849 130.468C198.24 135.679 198.939 141.05 198.928 146.443Z"
        fill="#A2BDFF" />
    <path
        d="M177.41 193.603C166.06 203.453 151.532 208.868 136.504 208.849C114.31 208.849 94.8349 197.281 83.7645 179.831C93.5022 171.853 98.9929 172.705 102.653 174.074C106.652 175.585 108.873 182.355 120.423 175.691C131.973 169.028 141.302 185.02 145.744 187.686C163.514 186.406 172.772 190.191 177.41 193.603Z"
        fill="#0E84E5" />
    <path
        d="M196.85 130.468C170.462 136.723 172.328 121.708 169.733 112.61C167.068 103.281 165.291 106.39 148.854 119.274C132.417 132.157 130.64 111.277 130.338 107.724C130.019 104.17 129.308 102.838 120.867 103.885C112.427 104.933 110.206 98.3946 103.098 102.837C100.148 104.685 96.1322 103.85 92.4539 102.233C98.2357 96.4464 105.103 91.8587 112.663 88.733C120.222 85.6074 128.324 84.0054 136.504 84.0189C165.451 84.0186 189.813 103.725 196.85 130.468Z"
        fill="#0E84E5" />
    <path
        d="M83.4985 79.3276C83.2127 80.2925 83.2196 81.3203 83.518 82.2813C83.8165 83.2423 84.3932 84.0931 85.1752 84.7263C85.9573 85.3595 86.9095 85.7466 87.9115 85.8386C88.9135 85.9307 89.9204 85.7235 90.8046 85.2433C91.6889 84.7631 92.411 84.0315 92.8794 83.141C93.3479 82.2505 93.5419 81.241 93.4367 80.2403C93.3315 79.2396 92.9319 78.2925 92.2884 77.5189C91.645 76.7453 90.7866 76.1798 89.8218 75.894C88.528 75.511 87.135 75.6576 85.9492 76.3015C84.7633 76.9454 83.8818 78.0339 83.4985 79.3276Z"
        fill="#699CFF" />
    <path
        d="M80.8863 66.9784C79.0716 67.9573 77.4692 69.2866 76.1719 70.8892C74.8746 72.4918 73.9082 74.3359 73.3287 76.3147C73.216 76.6901 73.1786 77.084 73.2185 77.4739C73.2584 77.8638 73.375 78.242 73.5614 78.5868C73.7478 78.9316 74.0005 79.2361 74.3049 79.483C74.6092 79.73 74.9594 79.9143 75.3352 80.0256C75.711 80.1369 76.1051 80.1729 76.4949 80.1316C76.8846 80.0902 77.2624 79.9723 77.6065 79.7846C77.9505 79.597 78.2542 79.3432 78.5 79.0379C78.7458 78.7326 78.9289 78.3818 79.0388 78.0056C79.4018 76.7792 80.0028 75.6364 80.8075 74.6424C81.6122 73.6484 82.6048 72.8226 83.7287 72.2123C84.8526 71.6019 86.0857 71.219 87.3576 71.0853C88.6295 70.9516 89.9153 71.0698 91.1415 71.4332C91.517 71.5458 91.9109 71.5832 92.3008 71.5433C92.6907 71.5034 93.0689 71.3868 93.4137 71.2004C93.7584 71.014 94.063 70.7614 94.3099 70.457C94.5568 70.1526 94.7412 69.8024 94.8525 69.4266C94.9638 69.0508 94.9998 68.6567 94.9584 68.2669C94.9171 67.8772 94.7992 67.4994 94.6115 67.1553C94.4238 66.8113 94.1701 66.5076 93.8648 66.2618C93.5595 66.016 93.2087 65.8329 92.8325 65.723C90.8572 65.1316 88.7842 64.9381 86.7336 65.1536C84.683 65.3691 82.6955 65.9893 80.8863 66.9784Z"
        fill="#699CFF" />
    <path
        d="M76.2067 58.3613C73.2582 59.9521 70.6544 62.1119 68.5462 64.7158C66.4381 67.3197 64.8673 70.3159 63.9249 73.531C63.7007 74.2882 63.7864 75.1035 64.1633 75.7975C64.5402 76.4915 65.1773 77.0074 65.9345 77.2316C66.6917 77.4559 67.507 77.3701 68.201 76.9932C68.895 76.6164 69.4109 75.9793 69.6351 75.222C70.3637 72.7609 71.57 70.4674 73.185 68.4724C74.8001 66.4775 76.7923 64.8202 79.0478 63.5953C81.3034 62.3704 83.7782 61.6018 86.3309 61.3334C88.8836 61.065 91.4641 61.3021 93.9251 62.0311C94.3005 62.1438 94.6945 62.1812 95.0844 62.1413C95.4743 62.1013 95.8525 61.9848 96.1973 61.7984C96.542 61.612 96.8466 61.3593 97.0935 61.0549C97.3404 60.7505 97.5248 60.4004 97.6361 60.0246C97.7474 59.6487 97.7834 59.2547 97.742 58.8649C97.7007 58.4752 97.5828 58.0974 97.3951 57.7533C97.2074 57.4092 96.9537 57.1056 96.6484 56.8598C96.3431 56.614 95.9923 56.4308 95.616 56.3209C92.4066 55.3605 89.0386 55.0464 85.707 55.3966C82.3753 55.7468 79.1463 56.7545 76.2067 58.3613Z"
        fill="#699CFF" />
    <path
        d="M98.4081 46.8977C93.9597 45.58 89.2953 45.1515 84.6812 45.6367C80.0671 46.1218 75.5939 47.5111 71.5168 49.7252C67.4397 51.9393 63.8387 54.9348 60.9194 58.5408C58.0001 62.1467 55.8198 66.2923 54.5028 70.741C54.3902 71.1164 54.3528 71.5104 54.3927 71.9003C54.4326 72.2902 54.5492 72.6684 54.7356 73.0131C54.922 73.3579 55.1746 73.6625 55.479 73.9094C55.7834 74.1563 56.1336 74.3407 56.5094 74.452C56.8852 74.5632 57.2793 74.5993 57.669 74.5579C58.0588 74.5165 58.4366 74.3986 58.7807 74.211C59.1247 74.0233 59.4284 73.7695 59.6742 73.4642C59.92 73.1589 60.1031 72.8081 60.213 72.4319C61.3078 68.7333 63.1205 65.2865 65.5476 62.2885C67.9746 59.2905 70.9685 56.8 74.3582 54.9592C77.7479 53.1184 81.467 51.9634 85.3031 51.5601C89.1393 51.1569 93.0173 51.5132 96.7156 52.6089C97.4718 52.8292 98.2843 52.7411 98.9756 52.3638C99.6669 51.9865 100.181 51.3508 100.404 50.5957C100.628 49.8406 100.544 49.0276 100.17 48.3346C99.7955 47.6416 99.1622 47.125 98.4081 46.8977Z"
        fill="#699CFF" />
</svg>
